src/static/logos/zenhub.svg

<svg width="256" height="257" xmlns="http://www.w3.org/2000/svg" preserveAspectRatio="xMidYMid"><path fill="#3F4D9C" d="M0 .56h256v256H0z"/><path d="M190.464 71.728c-5.12 5.12-11.264 12.288-17.92 20.48-7.168 8.192-14.336 17.408-21.504 27.136-7.68 9.728-14.848 19.968-22.016 30.72-7.168 10.24-13.824 20.48-19.456 30.208h83.968v31.232H62.976v-22.016c4.608-8.192 9.728-16.896 16.384-27.136 6.656-9.728 13.312-19.968 19.968-30.208 6.656-10.24 14.336-19.968 21.504-29.184C128 93.744 134.656 85.04 140.8 77.872H67.072V46.64h123.392v25.088z" fill="#FFF"/></svg>

<?xml version="1.0" encoding="UTF-8" standalone="no"?>
<svg width="256px" height="257px" viewBox="0 0 256 257" version="1.1" xmlns="http://www.w3.org/2000/svg" xmlns:xlink="http://www.w3.org/1999/xlink" preserveAspectRatio="xMidYMid">
	<g>
		<rect fill="#3F4D9C" x="0" y="0.56" width="256" height="256"></rect>
		<path d="M190.464,71.728 C185.344,76.848 179.2,84.016 172.544,92.208 C165.376,100.4 158.208,109.616 151.04,119.344 C143.36,129.072 136.192,139.312 129.024,150.064 C121.856,160.304 115.2,170.544 109.568,180.272 L193.536,180.272 L193.536,211.504 L62.976,211.504 L62.976,189.488 C67.584,181.296 72.704,172.592 79.36,162.352 C86.016,152.624 92.672,142.384 99.328,132.144 C105.984,121.904 113.664,112.176 120.832,102.96 C128,93.744 134.656,85.04 140.8,77.872 L67.072,77.872 L67.072,46.64 L190.464,46.64 L190.464,71.728 L190.464,71.728 Z" fill="#FFFFFF"></path>
	</g>
</svg>
